src/assets/images/currencies.svg

<?xml version="1.0" encoding="UTF-8" standalone="no"?>
<svg
   width="512"
   height="512"
   viewBox="0 0 24 24"
   version="1.1"
   id="svg4"
   sodipodi:docname="currencies.svg"
   inkscape:version="1.1.2 (0a00cf5339, 2022-02-04)"
   xmlns:inkscape="http://www.inkscape.org/namespaces/inkscape"
   xmlns:sodipodi="http://sodipodi.sourceforge.net/DTD/sodipodi-0.dtd"
   xmlns="http://www.w3.org/2000/svg"
   xmlns:svg="http://www.w3.org/2000/svg">
  <defs
     id="defs8" />
  <sodipodi:namedview
     id="namedview6"
     pagecolor="#505050"
     bordercolor="#eeeeee"
     borderopacity="1"
     inkscape:pageshadow="0"
     inkscape:pageopacity="0"
     inkscape:pagecheckerboard="0"
     showgrid="false"
     inkscape:zoom="0.41210938"
     inkscape:cx="356.70142"
     inkscape:cy="353.06161"
     inkscape:window-width="1850"
     inkscape:window-height="1016"
     inkscape:window-x="70"
     inkscape:window-y="27"
     inkscape:window-maximized="1"
     inkscape:current-layer="svg4" />
  <path
     fill="currentColor"
     d="M 8.1293499,21.990058 V 20.741301 H 5.6318355 q -0.5307218,0 -0.8891151,-0.359643 Q 4.384327,20.022016 4.3830783,19.492543 4.3818295,18.96307 4.7427204,18.603428 5.1036112,18.243786 5.6318355,18.243786 H 6.8805927 V 5.7562139 H 5.6318355 q -0.5307218,0 -0.8891151,-0.3596421 Q 4.384327,5.0369298 4.3830783,4.5074567 4.3818295,3.9779836 4.7427204,3.6183416 5.1036112,3.2586995 5.6318355,3.2586995 H 8.1293499 V 2.0099423 q 0,-0.5307219 0.3596421,-0.8891152 0.3596421,-0.3583933 0.8891152,-0.35964205 0.529473,-0.001249 0.8903638,0.35964205 0.360891,0.3608909 0.358393,0.8891152 v 1.2487572 h 2.497515 V 2.0099423 q 0,-0.5307219 0.359642,-0.8891152 0.359642,-0.3583933 0.889115,-0.35964205 0.529473,-0.001249 0.890364,0.35964205 0.360891,0.3608909 0.358393,0.8891152 v 1.4048518 q 1.623385,0.4370651 2.684828,1.764494 1.061444,1.3274289 1.061444,3.0744402 0,0.905349 -0.312189,1.7332751 -0.31219,0.8279256 -0.87413,1.4822746 1.092662,0.655598 1.764493,1.779479 0.671832,1.123882 0.670583,2.497515 0,2.060449 -1.46729,3.527739 -1.467289,1.46729 -3.527739,1.46729 v 1.248757 q 0,0.530722 -0.358393,0.890364 -0.358393,0.359642 -0.890364,0.358393 -0.531971,-0.0012 -0.889115,-0.359642 -0.357145,-0.358393 -0.359642,-0.889115 v -1.248757 h -2.497515 v 1.248757 q 0,0.530722 -0.359642,0.890364 Q 9.9075802,23.240064 9.3781072,23.238815 8.8486341,23.237566 8.488992,22.879173 8.1293499,22.52078 8.1293499,21.990058 M 9.3781072,10.751243 h 4.9950288 q 1.030225,0 1.764494,-0.733021 Q 16.871899,9.2852018 16.87065,8.2537283 16.869402,7.2222549 16.13763,6.4904832 15.405858,5.7587114 14.373136,5.7562139 H 9.3781072 Z m 0,7.492543 h 6.2437858 q 1.030225,0 1.764494,-0.73302 0.734269,-0.733021 0.733021,-1.764494 -0.0012,-1.031474 -0.733021,-1.763246 -0.731772,-0.731771 -1.764494,-0.734269 H 9.3781072 Z"
     id="path2"
     style="stroke-width:1.24876" />
</svg>

<svg xmlns="http://www.w3.org/2000/svg" width="512" height="512" viewBox="0 0 24 24">
  <path fill="currentColor" d="M8.13 21.99v-1.249H5.631q-.53 0-.89-.36-.358-.359-.359-.888-.001-.53.36-.89.36-.36.889-.36H6.88V5.757H5.63q-.53 0-.888-.36-.359-.36-.36-.889t.36-.889.889-.36h2.497V2.01q0-.53.36-.89.36-.358.89-.359.529-.001.89.36.36.36.358.889v1.249h2.497v-1.25q0-.53.36-.888.36-.359.89-.36.529-.001.89.36.36.36.358.889v1.405q1.623.437 2.685 1.764 1.061 1.328 1.061 3.075 0 .905-.312 1.733t-.874 1.482q1.093.656 1.764 1.78.672 1.124.67 2.497 0 2.06-1.466 3.528-1.468 1.467-3.528 1.467v1.25q0 .53-.358.89-.359.36-.89.358-.533-.001-.89-.36-.357-.358-.36-.889v-1.249h-2.497v1.25q0 .53-.36.89t-.889.358-.889-.36-.36-.889m1.25-11.239h4.994q1.03 0 1.765-.733t.733-1.764-.733-1.764-1.765-.734H9.378Zm0 7.493h6.243q1.03 0 1.764-.733.735-.733.733-1.765 0-1.031-.733-1.763-.731-.732-1.764-.734H9.378Z" style="stroke-width:1.24876"/>
</svg>
